src/assets/icons/svg/question.svg

<svg width="28" height="28" viewBox="0 0 28 28" fill="none" xmlns="http://www.w3.org/2000/svg">
<path d="M26.3227 22.5444C27.4223 21.0473 28 19.3076 28 17.474C28 14.5388 26.4778 11.8137 23.9098 10.1132C23.673 7.49808 22.4519 5.07286 20.4103 3.20424C18.1528 1.13799 15.1576 0 11.9766 0C8.79557 0 5.80045 1.13799 3.54285 3.2043C1.25823 5.29527 3.64671e-05 8.08313 3.64671e-05 11.0543C3.64671e-05 13.3396 0.73673 15.5062 2.13717 17.36L0.0797707 22.4494C-0.0870806 22.8621 0.0128333 23.3348 0.332481 23.6446C0.54084 23.8465 0.815261 23.9531 1.09406 23.9531C1.24297 23.9531 1.39314 23.9227 1.535 23.8602L7.40301 21.2735C8.13971 21.555 8.89866 21.7657 9.67511 21.9051C10.4704 23.2132 11.6049 24.3209 12.984 25.1272C14.5236 26.0273 16.3014 26.5082 18.1299 26.5221C18.1568 26.524 18.1836 26.5262 18.211 26.5262C19.4752 26.5262 20.7001 26.3078 21.8588 25.8765L26.4651 27.907C26.6069 27.9696 26.7571 28 26.906 28C27.1848 28 27.4593 27.8935 27.6676 27.6915C27.9872 27.3816 28.0872 26.9089 27.9203 26.4963L26.3227 22.5444ZM24.0564 22.7749L24.8827 24.8189L22.3213 23.6898C22.0444 23.5678 21.7293 23.5658 21.4509 23.6846C20.447 24.1129 19.372 24.3324 18.2552 24.3381C18.2405 24.3375 18.2259 24.3359 18.2109 24.3359C16.0555 24.3359 14.0191 23.4936 12.5965 22.0924C14.4003 22.006 16.1683 21.5454 17.7446 20.7449C18.2832 20.4714 18.498 19.813 18.2245 19.2744C17.951 18.7358 17.2926 18.5211 16.754 18.7945C15.3029 19.5315 13.6509 19.9211 11.9766 19.9211C10.5217 19.9211 9.12096 19.6382 7.81355 19.0804C7.53525 18.9616 7.22003 18.9634 6.94315 19.0856L3.11733 20.7721L4.40543 17.5857C4.55818 17.2078 4.48823 16.7763 4.22382 16.4662C2.89169 14.9034 2.18753 13.032 2.18753 11.0543C2.18753 6.16507 6.57888 2.1875 11.9766 2.1875C17.3743 2.1875 21.7656 6.16507 21.7656 11.0543C21.7656 12.6334 21.3014 14.1837 20.4229 15.5375C20.0942 16.0442 20.2384 16.7215 20.7452 17.0503C21.2518 17.3792 21.9292 17.2348 22.2581 16.7281C23.0376 15.5267 23.5584 14.2002 23.7992 12.8225C25.0805 14.0772 25.8125 15.73 25.8125 17.474C25.8125 19.0012 25.2681 20.4471 24.238 21.6554C23.9736 21.9656 23.9037 22.3971 24.0564 22.7749ZM13.0156 16.6797C13.0156 17.2837 12.526 17.7734 11.9219 17.7734C11.3178 17.7734 10.8281 17.2837 10.8281 16.6797C10.8281 16.0756 11.3178 15.5859 11.9219 15.5859C12.526 15.5859 13.0156 16.0756 13.0156 16.6797ZM16.0772 8.48486C16.0779 8.50006 16.0782 8.51526 16.0782 8.53063C16.0786 10.1771 15.1003 11.6588 13.5859 12.3053C13.2726 12.4391 13.07 12.7547 13.07 13.1092V13.1797C13.07 13.7837 12.5803 14.2734 11.9762 14.2734C11.3722 14.2734 10.8825 13.7837 10.8825 13.1797V13.1093C10.8825 11.8771 11.6065 10.7719 12.7271 10.2935C13.4245 9.99576 13.8784 9.31868 13.8904 8.56252C13.8901 8.55202 13.89 8.54146 13.89 8.53091C13.89 7.47571 13.0315 6.61723 11.9762 6.61723C10.9211 6.61717 10.0625 7.47566 10.0625 8.53085C10.0625 9.13493 9.57285 9.6246 8.96877 9.6246C8.36469 9.6246 7.87502 9.13493 7.87502 8.53085C7.87502 6.26947 9.71481 4.42968 11.9762 4.42968C14.2223 4.42968 16.0525 6.24459 16.0772 8.48486Z" fill="black"/>
</svg>

<?xml version="1.0" encoding="iso-8859-1"?>
<!-- Generator: Adobe Illustrator 23.1.0, SVG Export Plug-In . SVG Version: 6.00 Build 0)  -->
<svg version="1.1" id="&#x421;&#x43B;&#x43E;&#x439;_1"
	 xmlns="http://www.w3.org/2000/svg" xmlns:xlink="http://www.w3.org/1999/xlink" x="0px" y="0px" viewBox="0 0 28 28"
	 style="enable-background:new 0 0 28 28;" xml:space="preserve">
<path d="M26.323,22.544c1.1-1.497,1.677-3.237,1.677-5.07c0-2.935-1.522-5.66-4.09-7.361c-0.237-2.615-1.458-5.04-3.5-6.909
	C18.153,1.138,15.158,0,11.977,0C8.796,0,5.8,1.138,3.543,3.204C1.258,5.295,0,8.083,0,11.054c0,2.285,0.737,4.452,2.137,6.306
	L0.08,22.449c-0.167,0.413-0.067,0.885,0.253,1.195c0.208,0.202,0.483,0.309,0.762,0.309c0.149,0,0.299-0.03,0.441-0.093
	l5.868-2.587c0.737,0.281,1.496,0.492,2.272,0.632c0.795,1.308,1.93,2.416,3.309,3.222c1.54,0.9,3.317,1.381,5.146,1.395
	c0.027,0.002,0.054,0.004,0.081,0.004c1.264,0,2.489-0.218,3.648-0.65l4.606,2.031C26.607,27.97,26.757,28,26.906,28
	c0.279,0,0.553-0.107,0.762-0.309c0.32-0.31,0.42-0.783,0.253-1.195L26.323,22.544z M24.056,22.775l0.826,2.044l-2.561-1.129
	c-0.277-0.122-0.592-0.124-0.87-0.005c-1.004,0.428-2.079,0.648-3.196,0.653c-0.015-0.001-0.029-0.002-0.044-0.002
	c-2.155,0-4.192-0.842-5.614-2.243c1.804-0.086,3.572-0.547,5.148-1.347c0.539-0.274,0.753-0.932,0.48-1.47
	c-0.274-0.539-0.932-0.753-1.471-0.48c-1.451,0.737-3.103,1.127-4.777,1.127c-1.455,0-2.856-0.283-4.163-0.841
	c-0.278-0.119-0.594-0.117-0.87,0.005l-3.826,1.687l1.288-3.186c0.153-0.378,0.083-0.809-0.182-1.119
	c-1.332-1.563-2.036-3.434-2.036-5.412c0-4.889,4.391-8.867,9.789-8.867c5.398,0,9.789,3.978,9.789,8.867
	c0,1.579-0.464,3.129-1.343,4.483c-0.329,0.507-0.184,1.184,0.322,1.513c0.507,0.329,1.184,0.184,1.513-0.322
	c0.779-1.201,1.3-2.528,1.541-3.906c1.281,1.255,2.013,2.907,2.013,4.652c0,1.527-0.544,2.973-1.574,4.181
	C23.974,21.966,23.904,22.397,24.056,22.775z M13.016,16.68c0,0.604-0.49,1.094-1.094,1.094s-1.094-0.49-1.094-1.094
	c0-0.604,0.49-1.094,1.094-1.094S13.016,16.076,13.016,16.68z M16.077,8.485c0.001,0.015,0.001,0.03,0.001,0.046
	c0,1.646-0.978,3.128-2.492,3.775c-0.313,0.134-0.516,0.449-0.516,0.804v0.071c0,0.604-0.49,1.094-1.094,1.094
	c-0.604,0-1.094-0.49-1.094-1.094v-0.07c0-1.232,0.724-2.337,1.845-2.816c0.697-0.298,1.151-0.975,1.163-1.731
	c0-0.01,0-0.021,0-0.032c0-1.055-0.859-1.914-1.914-1.914c-1.055,0-1.914,0.858-1.914,1.914c0,0.604-0.49,1.094-1.094,1.094
	s-1.094-0.49-1.094-1.094c0-2.261,1.84-4.101,4.101-4.101C14.222,4.43,16.052,6.245,16.077,8.485z"/>
</svg>
